assets/imgs/linkedin.svg

<svg width="24" height="24" viewBox="0 0 24 24" fill="none" xmlns="http://www.w3.org/2000/svg">
<path d="M20 3H4C3.73478 3 3.48043 3.10536 3.29289 3.29289C3.10536 3.48043 3 3.73478 3 4V20C3 20.2652 3.10536 20.5196 3.29289 20.7071C3.48043 20.8946 3.73478 21 4 21H20C20.2652 21 20.5196 20.8946 20.7071 20.7071C20.8946 20.5196 21 20.2652 21 20V4C21 3.73478 20.8946 3.48043 20.7071 3.29289C20.5196 3.10536 20.2652 3 20 3ZM8.339 18.337H5.667V9.747H8.339V18.337ZM7.003 8.574C6.59244 8.574 6.1987 8.41091 5.9084 8.1206C5.61809 7.8303 5.455 7.43656 5.455 7.026C5.455 6.61544 5.61809 6.22171 5.9084 5.9314C6.1987 5.64109 6.59244 5.478 7.003 5.478C7.41355 5.478 7.80729 5.64109 8.0976 5.9314C8.38791 6.22171 8.551 6.61544 8.551 7.026C8.551 7.43656 8.38791 7.8303 8.0976 8.1206C7.80729 8.41091 7.41355 8.574 7.003 8.574ZM18.338 18.337H15.669V14.16C15.669 13.164 15.651 11.883 14.281 11.883C12.891 11.883 12.68 12.969 12.68 14.09V18.338H10.013V9.748H12.573V10.922H12.61C12.965 10.247 13.837 9.535 15.134 9.535C17.838 9.535 18.337 11.313 18.337 13.627L18.338 18.337Z" fill="white"/>
</svg>

<svg xmlns="http://www.w3.org/2000/svg" fill="white" width="24" height="24" viewBox="0 0 24 24"><path d="M20 3H4a1 1 0 0 0-1 1v16a1 1 0 0 0 1 1h16a1 1 0 0 0 1-1V4a1 1 0 0 0-1-1zM8.339 18.337H5.667v-8.59h2.672v8.59zM7.003 8.574a1.548 1.548 0 1 1 0-3.096 1.548 1.548 0 0 1 0 3.096zm11.335 9.763h-2.669V14.16c0-.996-.018-2.277-1.388-2.277-1.39 0-1.601 1.086-1.601 2.207v4.248h-2.667v-8.59h2.56v1.174h.037c.355-.675 1.227-1.387 2.524-1.387 2.704 0 3.203 1.778 3.203 4.092v4.71z"/></svg>
